www/assets/icons/thumb_down_off_alt.svg

<svg xmlns="http://www.w3.org/2000/svg" width="24" height="24" viewBox="0 0 24 24" fill='currentColor'><path d="m10.89 17.28.57-2.89c.12-.59-.04-1.2-.42-1.66S10.1 12 9.5 12H4v-1.08L6.57 5h8.09c.18 0 .34.16.34.34v7.84zM10 21l6.41-6.41c.38-.38.59-.89.59-1.42V5.34C17 4.05 15.95 3 14.66 3h-8.1c-.71 0-1.36.37-1.72.97l-2.67 6.15c-.11.25-.17.52-.17.8V12c0 1.1.9 2 2 2h5.5l-.92 4.65c-.05.22-.02.46.08.66.23.45.52.86.88 1.22zm10-7h2V3h-2c-.55 0-1 .45-1 1v9c0 .55.45 1 1 1"/></svg>

<svg width="24" height="24" viewBox="0 0 24 24" xmlns="http://www.w3.org/2000/svg" fill='currentColor'><path d="M10.89 17.28L11.46 14.39C11.58 13.8 11.42 13.19 11.04 12.73C10.66 12.27 10.1 12 9.5 12H4V10.92L6.57 5H14.66C14.84 5 15 5.16 15 5.34V13.18L10.89 17.28ZM10 21L16.41 14.59C16.79 14.21 17 13.7 17 13.17V5.34C17 4.05 15.95 3 14.66 3H6.56C5.85 3 5.2 3.37 4.84 3.97L2.17 10.12C2.06 10.37 2 10.64 2 10.92V12C2 13.1 2.9 14 4 14H9.5L8.58 18.65C8.53 18.87 8.56 19.11 8.66 19.31C8.89 19.76 9.18 20.17 9.54 20.53L10 21ZM20 14H22V3H20C19.45 3 19 3.45 19 4V13C19 13.55 19.45 14 20 14Z"/></svg>
